X:1
T:Title
%%score 1 ( 2 3 )
L:1/8
Q:1/4=115
M:4/4
K:Eb
V:1 treble nm="Grand Piano, Staff 1"
V:2 bass nm="Choir Pad, St. Oswald"
V:3 bass 
V:1
 [EB]3 [EG] [Ec]2 [Ee]2 | [Ed]2 [Ec]2 [EB]2 [EG]2 | E2 E2 [DF]2 [EG]2 | [DA]2 [Ec]2 [DB]4 | %4
w: By~John~Bacchus~Dykes,~1857 * * *||||
 [EB]3 [EG] [Ec]2 [Ge]2 | [_Gd]2 [Gc]2 [DB]2 [DB]2 | [EB]2 [Ee]2 [Ee]2 [EG]2 | [EB]2 [DF]2 E4- | %8
w: ||||
 E4 z4 |] %9
w: |
V:2
 [E,G,]3 [E,B,] [E,A,]2 [E,C]2 | [E,B,]2 [E,A,]2 [E,G,]2 [G,B,]2 | [A,C]2 [G,B,]2 [F,A,]2 [E,B,]2 | %3
 [F,B,]2 [F,=A,]2 [B,,B,]4 | [E,G,]3 [E,B,] [C,C]2 [C,B,]2 | [D,=A,]2 [D,A,]2 [G,B,]2 [F,_A,]2 | %6
 [E,G,]2 [C,A,]2 [B,,G,]2 [B,,B,]2 | F,G, [B,,A,]2 [E,G,]4- | [E,G,]4 z4 |] %9
V:3
 x8 | x8 | x8 | x8 | x8 | x8 | x8 | B,,2 z2 z4 | x8 |] %9

